img/coupin.svg

<svg width="40" height="24" viewBox="0 0 40 24" fill="none" xmlns="http://www.w3.org/2000/svg">
<g clip-path="url(#clip0_604_2298)" filter="url(#filter0_d_604_2298)">
<path d="M31.4509 5.6509C31.4509 5.7737 31.4043 5.89147 31.3212 5.9783C31.2382 6.06512 31.1255 6.11391 31.0081 6.11391C30.8906 6.11391 30.778 6.06512 30.695 5.9783C30.6119 5.89147 30.5653 5.7737 30.5653 5.6509V3.14955C30.5653 3.02676 30.6119 2.90899 30.695 2.82216C30.778 2.73533 30.8906 2.68655 31.0081 2.68655C31.1255 2.68655 31.2382 2.73533 31.3212 2.82216C31.4043 2.90899 31.4509 3.02676 31.4509 3.14955V5.6509ZM31.4509 10.0043C31.4509 10.1271 31.4043 10.2448 31.3212 10.3317C31.2382 10.4185 31.1255 10.4673 31.0081 10.4673C30.8906 10.4673 30.778 10.4185 30.695 10.3317C30.6119 10.2448 30.5653 10.1271 30.5653 10.0043V7.50291C30.5653 7.38011 30.6119 7.26235 30.695 7.17552C30.778 7.08869 30.8906 7.03991 31.0081 7.03991C31.1255 7.03991 31.2382 7.08869 31.3212 7.17552C31.4043 7.26235 31.4509 7.38011 31.4509 7.50291V10.0043ZM31.4509 14.4045C31.4509 14.5273 31.4043 14.6451 31.3212 14.7319C31.2382 14.8187 31.1255 14.8675 31.0081 14.8675C30.8906 14.8675 30.778 14.8187 30.695 14.7319C30.6119 14.6451 30.5653 14.5273 30.5653 14.4045V11.9031C30.5653 11.7803 30.6119 11.6626 30.695 11.5757C30.778 11.4889 30.8906 11.4401 31.0081 11.4401C31.1255 11.4401 31.2382 11.4889 31.3212 11.5757C31.4043 11.6626 31.4509 11.7803 31.4509 11.9031V14.4045ZM31.4509 18.8047C31.4509 18.9275 31.4043 19.0453 31.3212 19.1321C31.2382 19.2189 31.1255 19.2677 31.0081 19.2677C30.8906 19.2677 30.778 19.2189 30.695 19.1321C30.6119 19.0453 30.5653 18.9275 30.5653 18.8047V16.3034C30.5653 16.1806 30.6119 16.0628 30.695 15.976C30.778 15.8891 30.8906 15.8404 31.0081 15.8404C31.1255 15.8404 31.2382 15.8891 31.3212 15.976C31.4043 16.0628 31.4509 16.1806 31.4509 16.3034V18.8047ZM9.39099 5.6509C9.39099 5.7737 9.34434 5.89147 9.26129 5.9783C9.17825 6.06512 9.06562 6.11391 8.94817 6.11391C8.83073 6.11391 8.7181 6.06512 8.63506 5.9783C8.55201 5.89147 8.50536 5.7737 8.50536 5.6509V3.14955C8.50536 3.02676 8.55201 2.90899 8.63506 2.82216C8.7181 2.73533 8.83073 2.68655 8.94817 2.68655C9.06562 2.68655 9.17825 2.73533 9.26129 2.82216C9.34434 2.90899 9.39099 3.02676 9.39099 3.14955V5.6509ZM9.39099 10.0043C9.39099 10.1271 9.34434 10.2448 9.26129 10.3317C9.17825 10.4185 9.06562 10.4673 8.94817 10.4673C8.83073 10.4673 8.7181 10.4185 8.63506 10.3317C8.55201 10.2448 8.50536 10.1271 8.50536 10.0043V7.50291C8.50536 7.38011 8.55201 7.26235 8.63506 7.17552C8.7181 7.08869 8.83073 7.03991 8.94817 7.03991C9.06562 7.03991 9.17825 7.08869 9.26129 7.17552C9.34434 7.26235 9.39099 7.38011 9.39099 7.50291V10.0043ZM9.39099 14.4045C9.39099 14.5273 9.34434 14.6451 9.26129 14.7319C9.17825 14.8187 9.06562 14.8675 8.94817 14.8675C8.83073 14.8675 8.7181 14.8187 8.63506 14.7319C8.55201 14.6451 8.50536 14.5273 8.50536 14.4045V11.9031C8.50536 11.7803 8.55201 11.6626 8.63506 11.5757C8.7181 11.4889 8.83073 11.4401 8.94817 11.4401C9.06562 11.4401 9.17825 11.4889 9.26129 11.5757C9.34434 11.6626 9.39099 11.7803 9.39099 11.9031V14.4045ZM9.39099 18.8047C9.39099 18.9275 9.34434 19.0453 9.26129 19.1321C9.17825 19.2189 9.06562 19.2677 8.94817 19.2677C8.83073 19.2677 8.7181 19.2189 8.63506 19.1321C8.55201 19.0453 8.50536 18.9275 8.50536 18.8047V16.3034C8.50536 16.1806 8.55201 16.0628 8.63506 15.976C8.7181 15.8891 8.83073 15.8404 8.94817 15.8404C9.06562 15.8404 9.17825 15.8891 9.26129 15.976C9.34434 16.0628 9.39099 16.1806 9.39099 16.3034V18.8047ZM37.6525 6.62378H38.2287C38.6982 6.62197 39.1479 6.42611 39.4797 6.07894C39.8115 5.73176 39.9986 5.26145 40 4.77063V1.85315C39.9988 1.36223 39.8119 0.89175 39.48 0.544511C39.1481 0.197272 38.6982 0.00150904 38.2287 0L1.77236 0C1.30266 0.00120742 0.85252 0.196837 0.520388 0.544109C0.188256 0.89138 0.00115478 1.36203 0 1.85315L0 4.77063C0.00144188 5.26165 0.188635 5.73213 0.520705 6.07934C0.852775 6.42654 1.30274 6.62227 1.77236 6.62378H2.34747C2.81699 6.62498 3.26696 6.82046 3.59906 7.16748C3.93116 7.51451 4.11839 7.98487 4.11983 8.47578V13.5242C4.11868 14.0153 3.93158 14.486 3.59945 14.8333C3.26731 15.1805 2.81718 15.3762 2.34747 15.3774H1.77236C1.30284 15.3786 0.852873 15.574 0.520772 15.9211C0.188672 16.2681 0.00144325 16.7385 0 17.2294L0 20.148C0.00144325 20.6389 0.188672 21.1093 0.520772 21.4563C0.852873 21.8033 1.30284 21.9988 1.77236 22H38.2287C38.6981 21.9985 39.1478 21.8029 39.4796 21.4559C39.8115 21.1089 39.9986 20.6387 40 20.148V17.2294C39.9986 16.7387 39.8115 16.2685 39.4796 15.9215C39.1478 15.5745 38.6981 15.3789 38.2287 15.3774H37.6525C37.1829 15.3759 36.7329 15.1801 36.4009 14.8329C36.0688 14.4857 35.8816 14.0152 35.8802 13.5242V8.47578C35.8819 7.98496 36.0692 7.51477 36.4013 7.16781C36.7333 6.82085 37.1831 6.62528 37.6525 6.62378Z" fill="#F8F6D0"/>
<path d="M-1.14121e-05 17.2294V17.1368C-0.00515532 16.7355 0.118653 16.344 0.351586 16.025C0.584519 15.706 0.913099 15.4779 1.2847 15.3774C1.24644 15.4128 1.21035 15.4483 1.17537 15.4917C0.832864 15.6207 0.536486 15.8565 0.326283 16.1673C0.116079 16.478 0.0021841 16.8488 -1.14121e-05 17.2294Z" fill="#F8F6D0"/>
<path d="M38.2287 21.9074H1.77236C1.30284 21.9062 0.852873 21.7107 0.520772 21.3637C0.188672 21.0167 0.00144325 20.5463 0 20.0554L0 17.2294C0.00107701 16.8478 0.114453 16.4757 0.324732 16.1638C0.535011 15.8519 0.832003 15.6153 1.17538 15.486C1.01228 15.6525 0.882993 15.8517 0.795257 16.0717C0.707522 16.2917 0.663141 16.528 0.664772 16.7664V19.685C0.666213 20.1757 0.853291 20.6459 1.18516 20.9929C1.51702 21.3399 1.96671 21.5355 2.43604 21.537H38.8924C39.0582 21.529 39.2222 21.4978 39.3801 21.4444C39.061 21.7359 38.6525 21.8981 38.2287 21.9017" fill="#F8F6D0"/>
<path d="M3.49879 14.9144C3.72782 14.7079 3.90469 14.4456 4.01376 14.1507C3.9128 14.442 3.74365 14.7022 3.52175 14.9075L3.49879 14.9144ZM-1.14121e-05 1.85315V1.80628C-0.00515532 1.40497 0.118653 1.01347 0.351586 0.694469C0.584519 0.375469 0.913099 0.147431 1.2847 0.046875L1.24425 0.084601C0.88422 0.203224 0.569613 0.438518 0.345933 0.756449C0.122253 1.07438 0.00109713 1.45847 -1.14121e-05 1.85315Z" fill="#F8F6D0"/>
<path d="M3.52283 14.9075C3.74473 14.7022 3.91389 14.442 4.01485 14.1507C4.08679 13.9516 4.12383 13.7405 4.12419 13.5276V8.47578C4.12274 7.98487 3.93552 7.5145 3.60342 7.16748C3.27131 6.82045 2.82134 6.62498 2.35183 6.62378H1.75485C1.28119 6.61506 0.830228 6.41 0.501143 6.05369C0.172057 5.69739 -0.0082113 5.21901 -2.01082e-05 4.72375V1.85315C0.00108843 1.45846 0.122245 1.07437 0.345925 0.756443C0.569604 0.438511 0.884211 0.203218 1.24424 0.0845947C1.06116 0.253666 0.914739 0.461693 0.814799 0.69474C0.714858 0.927787 0.6637 1.18047 0.664751 1.43587V4.35335C0.665905 4.84427 0.852856 5.31475 1.18475 5.66199C1.51665 6.00923 1.9665 6.20499 2.43602 6.2065H3.01223C3.48184 6.20801 3.93181 6.40374 4.26388 6.75094C4.59595 7.09815 4.78314 7.56863 4.78458 8.05965V13.1538C4.78944 13.5509 4.66822 13.9384 4.4399 14.2558C4.21158 14.5731 3.88906 14.8023 3.52283 14.9075Z" fill="#F8F6D0"/>
<path d="M24.6293 15.3305C24.8065 15.3305 24.9836 15.2379 25.1607 15.007C25.3379 14.7761 25.3794 14.3576 25.3794 13.802C25.3794 13.2007 25.3346 12.7834 25.1607 12.5982C24.9836 12.3696 24.8502 12.2736 24.6293 12.2736C24.4522 12.2736 24.2751 12.3662 24.098 12.5982C23.9208 12.8303 23.8793 13.2464 23.8793 13.802C23.8793 14.4045 23.9241 14.8218 24.098 15.007C24.2751 15.2356 24.4074 15.3305 24.6293 15.3305ZM24.6293 17.274C24.0575 17.2846 23.4926 17.1408 22.9893 16.8567C22.5022 16.5799 22.1021 16.1619 21.8369 15.6529C21.5274 15.143 21.3995 14.4948 21.3995 13.754C21.3995 13.0132 21.5329 12.4107 21.8369 11.8551C22.1474 11.3453 22.5016 10.928 22.9893 10.6502C23.4927 10.3665 24.0575 10.2231 24.6293 10.2341C25.2005 10.2288 25.7641 10.3718 26.2694 10.6502C26.756 10.9278 27.1557 11.3461 27.4207 11.8551C27.7313 12.3639 27.8635 13.0132 27.8635 13.754C27.8635 14.4948 27.7313 15.143 27.4207 15.6529C27.1557 16.1616 26.756 16.5796 26.2694 16.8567C25.7642 17.1356 25.2006 17.279 24.6293 17.274ZM15.8146 9.44868C15.9917 9.44868 16.1688 9.35608 16.3459 9.12401C16.5231 8.89194 16.5646 8.47581 16.5646 7.92021C16.5646 7.31773 16.5209 6.9016 16.3459 6.7164C16.1688 6.48776 16.0354 6.39173 15.8146 6.39173C15.6363 6.39173 15.4592 6.48433 15.2821 6.7164C15.105 6.94848 15.0634 7.36461 15.0634 7.92021C15.0634 8.52268 15.1072 8.93881 15.2821 9.12401C15.457 9.30921 15.6363 9.44868 15.8146 9.44868ZM14.707 17.0911L22.9073 4.53858H25.7861L17.5858 17.0911H14.707ZM15.8146 11.3476C15.2426 11.3584 14.6777 11.2147 14.1745 10.9303C13.6875 10.6535 13.2873 10.2355 13.0221 9.72648C12.7127 9.17088 12.5847 8.56841 12.5847 7.82761C12.5847 7.08681 12.7181 6.48433 13.0221 5.92873C13.3326 5.41886 13.6869 5.00273 14.1745 4.72378C14.6815 4.45 15.2439 4.30713 15.8146 4.30713C16.3852 4.30713 16.9476 4.45 17.4546 4.72378C17.9409 5.00173 18.3406 5.41999 18.6059 5.92873C18.9165 6.4386 19.0488 7.08681 19.0488 7.82761C19.0488 8.56841 18.9154 9.21661 18.6049 9.72648C18.3396 10.235 17.9399 10.6529 17.4535 10.9303C16.9502 11.2144 16.3854 11.3581 15.8135 11.3476H15.8146Z" fill="#FF9415"/>
<path d="M29.1187 2.12408H11.4509V19.7239H29.1187V2.12408Z" fill="#F8F6D0"/>
</g>
<path d="M24.1417 17.554C23.5698 17.5646 23.0049 17.4209 22.5016 17.1368C22.0151 16.8596 21.6154 16.4416 21.3503 15.933C21.0398 15.4231 20.9075 14.7749 20.9075 14.0341C20.9075 13.2933 21.0398 12.6908 21.3503 12.1352C21.6597 11.6253 22.0151 11.2081 22.5016 10.9303C23.005 10.6465 23.5699 10.5032 24.1417 10.5141C24.7129 10.5086 25.2765 10.6516 25.7817 10.9303C26.2688 11.2075 26.669 11.6259 26.9341 12.1352C27.2436 12.6439 27.3715 13.2933 27.3715 14.0341C27.3715 14.7749 27.2381 15.4231 26.9341 15.933C26.6688 16.4418 26.2686 16.8598 25.7817 17.1368C25.2785 17.421 24.7136 17.5647 24.1417 17.554ZM24.1417 12.5982C23.9645 12.5982 23.7874 12.6908 23.6103 12.9217C23.4332 13.1527 23.3916 13.5711 23.3916 14.1267C23.3916 14.7292 23.4364 15.1453 23.6103 15.3305C23.7841 15.5157 23.9645 15.6552 24.1417 15.6552C24.3188 15.6552 24.4959 15.5626 24.673 15.3305C24.8502 15.0984 24.8917 14.6823 24.8917 14.1267C24.8917 13.5242 24.8469 13.1081 24.673 12.9217C24.4959 12.6931 24.3636 12.5982 24.1417 12.5982ZM17.0982 17.3688H14.2193L22.4141 4.8175H25.2941L17.0938 17.3688M15.3225 11.6253C14.7506 11.6365 14.1856 11.4927 13.6825 11.2081C13.1956 10.931 12.7955 10.513 12.53 10.0043C12.2206 9.49439 12.0872 8.84619 12.0872 8.10539C12.0872 7.36458 12.2206 6.76211 12.53 6.20651C12.8406 5.69664 13.1948 5.28051 13.6825 5.0027C14.1893 4.72818 14.7517 4.5849 15.3225 4.5849C15.8933 4.5849 16.4558 4.72818 16.9626 5.0027C17.4505 5.27904 17.8515 5.69713 18.1172 6.20651C18.4277 6.71638 18.56 7.36458 18.56 8.10539C18.56 8.84619 18.4277 9.49439 18.1172 10.0043C17.8518 10.5116 17.452 10.928 16.9659 11.2035C16.4648 11.4936 15.8983 11.6377 15.3258 11.6208M15.3258 6.66494C15.1487 6.66494 14.9715 6.75754 14.7944 6.98961C14.6173 7.22168 14.5757 7.63781 14.5757 8.19341C14.5757 8.79589 14.6206 9.21202 14.7944 9.39722C14.9683 9.58242 15.1924 9.72189 15.3258 9.72189C15.5029 9.72189 15.68 9.62929 15.8572 9.39722C16.0343 9.16514 16.0758 8.74902 16.0758 8.19341C16.0758 7.59094 16.031 7.17481 15.8572 6.98961C15.68 6.76097 15.5467 6.66494 15.3258 6.66494Z" fill="#FF9415"/>
<defs>
<filter id="filter0_d_604_2298" x="0" y="0" width="40" height="24" filterUnits="userSpaceOnUse" color-interpolation-filters="sRGB">
<feFlood flood-opacity="0" result="BackgroundImageFix"/>
<feColorMatrix in="SourceAlpha" type="matrix" values="0 0 0 0 0 0 0 0 0 0 0 0 0 0 0 0 0 0 127 0" result="hardAlpha"/>
<feOffset dy="2"/>
<feComposite in2="hardAlpha" operator="out"/>
<feColorMatrix type="matrix" values="0 0 0 0 0 0 0 0 0 0 0 0 0 0 0 0 0 0 0.25 0"/>
<feBlend mode="normal" in2="BackgroundImageFix" result="effect1_dropShadow_604_2298"/>
<feBlend mode="normal" in="SourceGraphic" in2="effect1_dropShadow_604_2298" result="shape"/>
</filter>
<clipPath id="clip0_604_2298">
<rect width="40" height="22" fill="white"/>
</clipPath>
</defs>
</svg>

<svg width="40" height="24" fill="none" xmlns="http://www.w3.org/2000/svg"><g clip-path="url(#a)" filter="url(#b)"><path d="M31.45 5.65c0 .124-.046.241-.129.328a.433.433 0 0 1-.313.136.433.433 0 0 1-.313-.136.474.474 0 0 1-.13-.327V3.15c0-.123.047-.241.13-.328a.433.433 0 0 1 .313-.135c.117 0 .23.048.313.135.083.087.13.205.13.328v2.5Zm0 4.354c0 .123-.046.24-.129.328a.433.433 0 0 1-.313.135.433.433 0 0 1-.313-.135.474.474 0 0 1-.13-.328V7.503c0-.123.047-.24.13-.327a.433.433 0 0 1 .313-.136c.117 0 .23.049.313.136.083.086.13.204.13.327v2.501Zm0 4.4c0 .123-.046.241-.129.328a.433.433 0 0 1-.313.136.433.433 0 0 1-.313-.136.474.474 0 0 1-.13-.327v-2.502c0-.123.047-.24.13-.327a.433.433 0 0 1 .313-.136c.117 0 .23.049.313.136.083.087.13.204.13.327v2.502Zm0 4.4c0 .123-.046.241-.129.328a.433.433 0 0 1-.313.136.433.433 0 0 1-.313-.136.474.474 0 0 1-.13-.327v-2.502c0-.122.047-.24.13-.327a.433.433 0 0 1 .313-.136c.117 0 .23.05.313.136.083.087.13.205.13.327v2.502ZM9.392 5.652c0 .123-.047.24-.13.327a.433.433 0 0 1-.313.136.433.433 0 0 1-.313-.136.474.474 0 0 1-.13-.327V3.15c0-.123.047-.241.13-.328a.433.433 0 0 1 .313-.135c.118 0 .23.048.313.135.083.087.13.205.13.328v2.5Zm0 4.353c0 .123-.047.24-.13.328a.433.433 0 0 1-.313.135.433.433 0 0 1-.313-.135.474.474 0 0 1-.13-.328V7.503c0-.123.047-.24.13-.327a.433.433 0 0 1 .313-.136c.118 0 .23.049.313.136.083.086.13.204.13.327v2.501Zm0 4.4c0 .123-.047.241-.13.328a.433.433 0 0 1-.313.136.433.433 0 0 1-.313-.136.474.474 0 0 1-.13-.327v-2.502c0-.123.047-.24.13-.327a.433.433 0 0 1 .313-.136c.118 0 .23.049.313.136.083.087.13.204.13.327v2.502Zm0 4.4c0 .123-.047.241-.13.328a.433.433 0 0 1-.313.136.433.433 0 0 1-.313-.136.474.474 0 0 1-.13-.327v-2.502c0-.122.047-.24.13-.327a.433.433 0 0 1 .313-.136c.118 0 .23.05.313.136.083.087.13.205.13.327v2.502Zm28.262-12.18h.576a1.74 1.74 0 0 0 1.25-.545c.333-.347.52-.818.521-1.308V1.853a1.902 1.902 0 0 0-.52-1.308A1.739 1.739 0 0 0 38.229 0H1.772C1.302.001.852.197.52.544.188.891.001 1.362 0 1.854V4.77c.001.49.189.961.52 1.308a1.74 1.74 0 0 0 1.252.545h.575c.47.001.92.196 1.252.543.332.348.52.818.52 1.309v5.048a1.902 1.902 0 0 1-.52 1.31 1.739 1.739 0 0 1-1.252.543h-.575c-.47.002-.92.197-1.251.544-.332.347-.52.817-.521 1.308v2.919c.001.49.189.961.52 1.308.333.347.783.543 1.252.544H38.23c.47-.002.919-.197 1.25-.544.333-.347.52-.817.521-1.308v-2.919a1.901 1.901 0 0 0-.52-1.307 1.738 1.738 0 0 0-1.251-.545h-.576a1.74 1.74 0 0 1-1.252-.544 1.902 1.902 0 0 1-.52-1.309V8.476c0-.491.188-.961.52-1.308a1.74 1.74 0 0 1 1.252-.544Z" fill="#F8F6D0"/><path d="M0 17.23v-.093a1.847 1.847 0 0 1 .352-1.112c.233-.319.561-.547.933-.648-.039.036-.075.071-.11.115a1.79 1.79 0 0 0-.849.675c-.21.311-.324.682-.326 1.062Z" fill="#F8F6D0"/><path d="M38.229 21.907H1.772a1.739 1.739 0 0 1-1.251-.543A1.901 1.901 0 0 1 0 20.055V17.23c.001-.381.114-.753.325-1.065.21-.312.507-.549.85-.678a1.777 1.777 0 0 0-.38.586c-.087.22-.132.456-.13.694v2.919c.001.49.188.96.52 1.308.332.347.782.543 1.251.544h36.456c.166-.008.33-.04.488-.093-.319.292-.727.454-1.151.458M3.499 14.914c.229-.206.406-.468.515-.763a1.86 1.86 0 0 1-.492.757l-.023.006ZM0 1.854v-.048A1.847 1.847 0 0 1 .352.694C.585.375.913.147 1.285.047l-.04.038C.884.203.57.439.344.756A1.917 1.917 0 0 0 0 1.853Z" fill="#F8F6D0"/><path d="M3.523 14.908a1.86 1.86 0 0 0 .492-.757c.072-.2.109-.41.11-.623V8.476a1.901 1.901 0 0 0-.522-1.309 1.738 1.738 0 0 0-1.251-.543h-.597A1.75 1.75 0 0 1 .5 6.054 1.915 1.915 0 0 1 0 4.724v-2.87c.001-.396.122-.78.346-1.098C.57.44.884.203 1.244.085a1.79 1.79 0 0 0-.43.61c-.1.233-.15.485-.15.74v2.918c.002.491.189.962.52 1.309.333.347.782.543 1.252.545h.576c.47.001.92.197 1.252.544.332.347.52.818.52 1.309v5.094a1.85 1.85 0 0 1-.344 1.102c-.228.317-.55.546-.917.652Z" fill="#F8F6D0"/><path d="M24.63 15.33c.177 0 .354-.092.53-.323.178-.23.22-.65.22-1.205 0-.601-.045-1.019-.22-1.204-.176-.228-.31-.324-.53-.324-.178 0-.355.092-.532.324-.177.232-.219.648-.219 1.204 0 .603.045 1.02.219 1.205.177.229.31.324.531.324Zm0 1.944a3.212 3.212 0 0 1-1.64-.417 2.945 2.945 0 0 1-1.153-1.204c-.31-.51-.438-1.158-.438-1.899 0-.74.134-1.343.438-1.899.31-.51.665-.927 1.152-1.205a3.212 3.212 0 0 1 1.64-.416 3.332 3.332 0 0 1 1.64.416c.487.278.887.696 1.152 1.205.31.509.442 1.158.442 1.899 0 .74-.132 1.389-.442 1.899a2.948 2.948 0 0 1-1.152 1.204 3.33 3.33 0 0 1-1.64.417Zm-8.815-7.825c.177 0 .354-.093.53-.325.178-.232.22-.648.22-1.204 0-.602-.044-1.018-.22-1.204-.176-.228-.31-.324-.53-.324-.179 0-.356.092-.533.324-.177.232-.219.649-.219 1.204 0 .603.044 1.019.22 1.204.174.185.353.325.532.325Zm-1.108 7.642 8.2-12.552h2.88L17.585 17.09h-2.879Zm1.108-5.743a3.207 3.207 0 0 1-1.64-.418 2.946 2.946 0 0 1-1.153-1.204c-.31-.555-.437-1.158-.437-1.898 0-.741.133-1.344.437-1.9.31-.51.665-.925 1.152-1.204a3.45 3.45 0 0 1 1.64-.417c.571 0 1.134.143 1.64.417a2.96 2.96 0 0 1 1.152 1.205c.31.51.443 1.158.443 1.899 0 .74-.134 1.389-.444 1.898a2.955 2.955 0 0 1-1.152 1.204 3.213 3.213 0 0 1-1.64.418h.002Z" fill="#FF9415"/><path d="M29.119 2.124H11.45v17.6h17.668v-17.6Z" fill="#F8F6D0"/></g><path d="M24.142 17.554a3.212 3.212 0 0 1-1.64-.417 2.95 2.95 0 0 1-1.152-1.204c-.31-.51-.443-1.158-.443-1.899 0-.74.133-1.343.443-1.899.31-.51.665-.927 1.152-1.205a3.212 3.212 0 0 1 1.64-.416 3.326 3.326 0 0 1 1.64.416c.487.277.887.696 1.152 1.205.31.509.438 1.158.438 1.9 0 .74-.134 1.388-.438 1.898a2.95 2.95 0 0 1-1.152 1.204 3.21 3.21 0 0 1-1.64.417Zm0-4.956c-.177 0-.355.093-.532.324-.177.23-.218.65-.218 1.205 0 .602.044 1.018.218 1.204.174.185.355.324.532.324.177 0 .354-.092.531-.324.177-.233.219-.649.219-1.204 0-.603-.045-1.019-.219-1.205-.177-.229-.31-.324-.531-.324Zm-7.044 4.77H14.22l8.195-12.55h2.88l-8.2 12.55m-1.772-5.743a3.2 3.2 0 0 1-1.64-.417 2.952 2.952 0 0 1-1.152-1.204c-.31-.51-.443-1.158-.443-1.899 0-.74.134-1.343.443-1.898.31-.51.665-.926 1.152-1.204a3.44 3.44 0 0 1 1.64-.418c.571 0 1.134.143 1.64.418.489.276.89.694 1.155 1.204.31.51.443 1.158.443 1.898 0 .741-.132 1.39-.443 1.9a2.94 2.94 0 0 1-1.151 1.198 3.089 3.089 0 0 1-1.64.418m0-4.956c-.177 0-.354.093-.532.325-.177.232-.218.648-.218 1.203 0 .603.045 1.019.218 1.204.174.185.398.325.532.325.177 0 .354-.093.531-.325.177-.232.219-.648.219-1.204 0-.602-.045-1.018-.219-1.203-.177-.229-.31-.325-.531-.325Z" fill="#FF9415"/><defs><clipPath id="a"><path fill="#fff" d="M0 0h40v22H0z"/></clipPath><filter id="b" x="0" y="0" width="40" height="24" filterUnits="userSpaceOnUse" color-interpolation-filters="sRGB"><feFlood flood-opacity="0" result="BackgroundImageFix"/><feColorMatrix in="SourceAlpha" values="0 0 0 0 0 0 0 0 0 0 0 0 0 0 0 0 0 0 127 0" result="hardAlpha"/><feOffset dy="2"/><feComposite in2="hardAlpha" operator="out"/><feColorMatrix values="0 0 0 0 0 0 0 0 0 0 0 0 0 0 0 0 0 0 0.25 0"/><feBlend in2="BackgroundImageFix" result="effect1_dropShadow_604_2298"/><feBlend in="SourceGraphic" in2="effect1_dropShadow_604_2298" result="shape"/></filter></defs></svg>
